public/socials/linkedin.svg

<svg fill="none" height="33" viewBox="0 0 32 33" width="32" xmlns="http://www.w3.org/2000/svg"><path d="m0 16.5c0 8.8366 7.16344 16 16 16 8.8366 0 16-7.1634 16-16 0-8.83656-7.1634-16-16-16-8.83656 0-16 7.16344-16 16z" fill="#2867b2"/><path d="m11.6 24.5h-3.4v-10.7h3.4zm-1.7-12.2c-1.1 0-1.9-.8-1.9-1.9s.9-1.9 1.9-1.9c1.1 0 1.9.8 1.9 1.9s-.8 1.9-1.9 1.9zm14.1 12.2h-3.4v-5.8c0-1.7-.7-2.2-1.7-2.2s-2 .8-2 2.3v5.7h-3.4v-10.7h3.2v1.5c.3-.7 1.5-1.8 3.2-1.8 1.9 0 3.9 1.1 3.9 4.4v6.6z" fill="#fff"/></svg>

<svg width="32" height="33" viewBox="0 0 32 33" fill="none" xmlns="http://www.w3.org/2000/svg">
<path d="M0 16.5C0 25.3366 7.16344 32.5 16 32.5C24.8366 32.5 32 25.3366 32 16.5C32 7.66344 24.8366 0.5 16 0.5C7.16344 0.5 0 7.66344 0 16.5Z" fill="#2867B2"/>
<path d="M11.6 24.5H8.2V13.8H11.6V24.5ZM9.9 12.3C8.8 12.3 8 11.5 8 10.4C8 9.3 8.9 8.5 9.9 8.5C11 8.5 11.8 9.3 11.8 10.4C11.8 11.5 11 12.3 9.9 12.3ZM24 24.5H20.6V18.7C20.6 17 19.9 16.5 18.9 16.5C17.9 16.5 16.9 17.3 16.9 18.8V24.5H13.5V13.8H16.7V15.3C17 14.6 18.2 13.5 19.9 13.5C21.8 13.5 23.8 14.6 23.8 17.9V24.5H24Z" fill="white"/>
</svg>
